X:86
T:T055- Hob or Nob [The Campbell's are coming]
S:Walsh's 'Caledonian Country Dances', IV, c 1744
Q:1/4=120
L:1/8
M:6/8
K:G
GBe dBG|B2BB2A|GBe dBG|ABAA2B|GBe dBG|B2dg2a|bag fed|B2B~B3::\
g2g gab|d2dd2B|g2g gab|e2ee2f|gfe gab|d2dg2a|bag fed|B2B~B3:|]

